arb/images/icons/ins-foot.svg

<svg width="24" height="25" viewBox="0 0 24 25" fill="none" xmlns="http://www.w3.org/2000/svg">
<path d="M17 2.90234H7C4.23858 2.90234 2 5.14092 2 7.90234V17.9023C2 20.6638 4.23858 22.9023 7 22.9023H17C19.7614 22.9023 22 20.6638 22 17.9023V7.90234C22 5.14092 19.7614 2.90234 17 2.90234Z" stroke="#687A95" stroke-width="2" stroke-linecap="round" stroke-linejoin="round"/>
<path d="M16 12.2726C16.1234 13.1049 15.9812 13.9549 15.5937 14.7017C15.2062 15.4485 14.5931 16.0541 13.8416 16.4323C13.0901 16.8106 12.2384 16.9422 11.4077 16.8086C10.5771 16.6749 9.80971 16.2827 9.21479 15.6878C8.61987 15.0929 8.22768 14.3255 8.09402 13.4949C7.96035 12.6642 8.09202 11.8125 8.47028 11.061C8.84854 10.3095 9.45414 9.69639 10.2009 9.30889C10.9477 8.92139 11.7977 8.77923 12.63 8.90265C13.4789 9.02853 14.2648 9.42411 14.8716 10.031C15.4785 10.6378 15.8741 11.4237 16 12.2726Z" stroke="#687A95" stroke-width="2" stroke-linecap="round" stroke-linejoin="round"/>
<path d="M17.5 7.40234H17.51" stroke="#687A95" stroke-width="2" stroke-linecap="round" stroke-linejoin="round"/>
</svg>

<svg width="24" height="25" fill="none" xmlns="http://www.w3.org/2000/svg"><path d="M17 2.902H7a5 5 0 00-5 5v10a5 5 0 005 5h10a5 5 0 005-5v-10a5 5 0 00-5-5z" stroke="#687A95" stroke-width="2" stroke-linecap="round" stroke-linejoin="round"/><path d="M16 12.273a4 4 0 11-7.914 1.173A4 4 0 0116 12.273zm1.5-4.871h.01" stroke="#687A95" stroke-width="2" stroke-linecap="round" stroke-linejoin="round"/></svg>
